Origami/64x64/apps/trillian.svg

<svg width="64" height="64" version="1" xmlns="http://www.w3.org/2000/svg">
 <path d="m24.99999 5c-10.950938 0-20 9.049062-20 20 0 9.040282 6.2809427 16.467414 14.59375 18.894532 1.476314 9.549108 9.478416 17.105468 19.40625 17.105468 10.949612 0 19.99781-9.046942 20-19.996094v-0.003906c5.6e-5 -0.786558-0.14204-1.563562-0.234376-2.34375 0.06654-0.54438 0.232174-1.075302 0.234376-1.625a8.0008 8.0008 0 0 0 0 -0.03516c-4e-3 -6.218684-4.30904-11.44293-10.109376-13.1875-1.293454-0.743836-2.598392-1.4772-4.015624-1.914062 0.0194-0.290924 0.12382-0.571232 0.125-0.863282a8.0008 8.0008 0 0 0 0 -0.03516c-0.004042-6.218675-4.30904-11.442923-10.109376-13.187492-3.019264-1.7363082-6.384076-2.8045136-9.882812-2.8085938a8.0008 8.0008 0 0 0 -0.0078 0z" style="opacity:.2"/>
 <path d="m24.99999 4c-10.950938 0-20 9.049062-20 20 0 9.040282 6.2809427 16.467414 14.59375 18.894532 1.476314 9.549108 9.478416 17.105468 19.40625 17.105468 10.949612 0 19.99781-9.046942 20-19.996094v-0.003906c5.6e-5 -0.786558-0.14204-1.563562-0.234376-2.34375 0.06654-0.54438 0.232174-1.075302 0.234376-1.625a8.0008 8.0008 0 0 0 0 -0.03516c-4e-3 -6.218684-4.30904-11.44293-10.109376-13.1875-1.293454-0.743836-2.598392-1.4772-4.015624-1.914062 0.0194-0.290924 0.12382-0.571232 0.125-0.863282a8.0008 8.0008 0 0 0 0 -0.03516c-0.004042-6.218675-4.30904-11.442923-10.109376-13.187492-3.019264-1.7363082-6.384076-2.8045136-9.882812-2.8085938a8.0008 8.0008 0 0 0 -0.0078 0z" style="fill:#a32b58"/>
 <path d="m24.99999 13a12 12 0 0 0 -12 12 12 12 0 0 0 12 12 12 12 0 0 0 12 -12 12 12 0 0 0 -12 -12zm1 2a9 9 0 0 1 9 9 9 9 0 0 1 -9 9 9 9 0 0 1 -9 -9 9 9 0 0 1 9 -9z" style="opacity:.2"/>
 <path d="m38.99999 29a12 12 0 0 0 -12 12 12 12 0 0 0 12 12 12 12 0 0 0 12 -12 12 12 0 0 0 -12 -12zm1 2a9 9 0 0 1 9 9 9 9 0 0 1 -9 9 9 9 0 0 1 -9 -9 9 9 0 0 1 9 -9z" style="opacity:.2"/>
 <path d="m38.99999 28a12 12 0 0 0 -12 12 12 12 0 0 0 12 12 12 12 0 0 0 12 -12 12 12 0 0 0 -12 -12zm1 2a9 9 0 0 1 9 9 9 9 0 0 1 -9 9 9 9 0 0 1 -9 -9 9 9 0 0 1 9 -9z" style="fill:#f3ab6f"/>
 <circle cx="45" cy="37" r="6" style="opacity:.2"/>
 <circle cx="45" cy="36" r="6" style="fill:#f7c39a"/>
 <path d="m24.99999 12a12 12 0 0 0 -12 12 12 12 0 0 0 12 12 12 12 0 0 0 12 -12 12 12 0 0 0 -12 -12zm1 2a9 9 0 0 1 9 9 9 9 0 0 1 -9 9 9 9 0 0 1 -9 -9 9 9 0 0 1 9 -9z" style="fill:#f3ab6f"/>
 <circle cx="31" cy="21" r="6" style="opacity:.2"/>
 <circle cx="31" cy="20" r="6" style="fill:#f7c39a"/>
 <path d="m25 4c-10.950938 0-20 9.049062-20 20 0 0.123143 0.0133049 0.242699 0.015625 0.365234 0.3419816-10.663206 9.246094-19.365234 19.984375-19.365234a8.0008 8.0008 0 0 1 0.007812 0c3.498736 0.0040802 6.863549 1.0722856 9.882813 2.8085938 5.573384 1.676309 9.754968 6.5679182 10.078125 12.464844 0.012419-0.080556 0.030919-0.160279 0.03125-0.242188a8.0008 8.0008 0 0 0 0 -0.035156c-0.004042-6.218675-4.309039-11.442931-10.109375-13.1875-3.019264-1.7363082-6.384077-2.8045136-9.882813-2.8085938a8.0008 8.0008 0 0 0 -0.007812 0zm19.998047 16.939453c9.3e-5 0.019045 0.001941 0.037577 0.001953 0.056641a8.0008 8.0008 0 0 1 0 0.035156c-0.00118 0.29205-0.1056 0.572357-0.125 0.863281 1.417232 0.436862 2.722171 1.170227 4.015625 1.914063 5.581343 1.678703 9.765613 6.582002 10.078125 12.490234 0.008021-0.089444 0.030888-0.177263 0.03125-0.267578a8.0008 8.0008 0 0 0 0 -0.035156c-4e-3 -6.218684-4.309039-11.44293-10.109375-13.1875-1.255283-0.721885-2.523518-1.428429-3.892578-1.869141zm13.841797 17.287109c-0.026669 0.142985-0.056584 0.285413-0.074219 0.429688 0.081504 0.688662 0.187785 1.375899 0.214844 2.068359 0.008767-0.239486 0.019483-0.479291 0.019531-0.720703v-0.003906c4.2e-5 -0.594845-0.080604-1.184012-0.160156-1.773438z" style="fill:#ffffff;opacity:.1"/>
</svg>

<svg xmlns="http://www.w3.org/2000/svg" width="64" height="64" version="1">
 <path style="opacity:0.2" d="M 24.99999,5 C 14.049052,5 4.9999903,14.049062 4.9999903,25 c 0,9.040282 6.2809427,16.467414 14.5937497,18.894532 C 21.070054,53.44364 29.072156,61 38.99999,61 c 10.949612,0 19.99781,-9.046942 20,-19.996094 V 41 c 5.6e-5,-0.786558 -0.14204,-1.563562 -0.234376,-2.34375 0.06654,-0.54438 0.232174,-1.075302 0.234376,-1.625 a 8.0008,8.0008 0 0 0 0,-0.03516 c -0.004,-6.218684 -4.30904,-11.44293 -10.109376,-13.1875 -1.293454,-0.743836 -2.598392,-1.4772 -4.015624,-1.914062 0.0194,-0.290924 0.12382,-0.571232 0.125,-0.863282 a 8.0008,8.0008 0 0 0 0,-0.03516 C 44.995948,14.777411 40.69095,9.553163 34.890614,7.8085938 31.87135,6.0722856 28.506538,5.0040802 25.007802,5 a 8.0008,8.0008 0 0 0 -0.0078,0 z"/>
 <path style="fill:#a32b58" d="M 24.99999,4 C 14.049052,4 4.9999903,13.049062 4.9999903,24 c 0,9.040282 6.2809427,16.467414 14.5937497,18.894532 C 21.070054,52.44364 29.072156,60 38.99999,60 c 10.949612,0 19.99781,-9.046942 20,-19.996094 V 40 c 5.6e-5,-0.786558 -0.14204,-1.563562 -0.234376,-2.34375 0.06654,-0.54438 0.232174,-1.075302 0.234376,-1.625 a 8.0008,8.0008 0 0 0 0,-0.03516 c -0.004,-6.218684 -4.30904,-11.44293 -10.109376,-13.1875 -1.293454,-0.743836 -2.598392,-1.4772 -4.015624,-1.914062 0.0194,-0.290924 0.12382,-0.571232 0.125,-0.863282 a 8.0008,8.0008 0 0 0 0,-0.03516 C 44.995948,13.777411 40.69095,8.5531632 34.890614,6.8085938 31.87135,5.0722856 28.506538,4.0040802 25.007802,4 a 8.0008,8.0008 0 0 0 -0.0078,0 z"/>
 <path style="opacity:0.2" d="m 24.99999,13 a 12,12 0 0 0 -12,12 12,12 0 0 0 12,12 12,12 0 0 0 12,-12 12,12 0 0 0 -12,-12 z m 1,2 a 9,9 0 0 1 9,9 9,9 0 0 1 -9,9 9,9 0 0 1 -9,-9 9,9 0 0 1 9,-9 z"/>
 <path style="opacity:0.2" d="m 38.99999,29 a 12,12 0 0 0 -12,12 12,12 0 0 0 12,12 12,12 0 0 0 12,-12 12,12 0 0 0 -12,-12 z m 1,2 a 9,9 0 0 1 9,9 9,9 0 0 1 -9,9 9,9 0 0 1 -9,-9 9,9 0 0 1 9,-9 z"/>
 <path style="fill:#f3ab6f" d="m 38.99999,28 a 12,12 0 0 0 -12,12 12,12 0 0 0 12,12 12,12 0 0 0 12,-12 12,12 0 0 0 -12,-12 z m 1,2 a 9,9 0 0 1 9,9 9,9 0 0 1 -9,9 9,9 0 0 1 -9,-9 9,9 0 0 1 9,-9 z"/>
 <circle style="opacity:0.2" cx="45" cy="37" r="6"/>
 <circle style="fill:#f7c39a" cx="45" cy="36" r="6"/>
 <path style="fill:#f3ab6f" d="m 24.99999,12 a 12,12 0 0 0 -12,12 12,12 0 0 0 12,12 12,12 0 0 0 12,-12 12,12 0 0 0 -12,-12 z m 1,2 a 9,9 0 0 1 9,9 9,9 0 0 1 -9,9 9,9 0 0 1 -9,-9 9,9 0 0 1 9,-9 z"/>
 <circle style="opacity:0.2" cx="31" cy="21" r="6"/>
 <circle style="fill:#f7c39a" cx="31" cy="20" r="6"/>
 <path style="opacity:0.1;fill:#ffffff" d="M 25 4 C 14.049062 4 5 13.049062 5 24 C 5 24.123143 5.0133049 24.242699 5.015625 24.365234 C 5.3576066 13.702028 14.261719 5 25 5 A 8.0008 8.0008 0 0 1 25.007812 5 C 28.506548 5.0040802 31.871361 6.0722856 34.890625 7.8085938 C 40.464009 9.4849028 44.645593 14.376512 44.96875 20.273438 C 44.981169 20.192882 44.999669 20.113159 45 20.03125 A 8.0008 8.0008 0 0 0 45 19.996094 C 44.995958 13.777419 40.690961 8.5531631 34.890625 6.8085938 C 31.871361 5.0722856 28.506548 4.0040802 25.007812 4 A 8.0008 8.0008 0 0 0 25 4 z M 44.998047 20.939453 C 44.99814 20.958498 44.999988 20.97703 45 20.996094 A 8.0008 8.0008 0 0 1 45 21.03125 C 44.99882 21.3233 44.8944 21.603607 44.875 21.894531 C 46.292232 22.331393 47.597171 23.064758 48.890625 23.808594 C 54.471968 25.487297 58.656238 30.390596 58.96875 36.298828 C 58.976771 36.209384 58.999638 36.121565 59 36.03125 A 8.0008 8.0008 0 0 0 59 35.996094 C 58.996 29.77741 54.690961 24.553164 48.890625 22.808594 C 47.635342 22.086709 46.367107 21.380165 44.998047 20.939453 z M 58.839844 38.226562 C 58.813175 38.369547 58.78326 38.511975 58.765625 38.65625 C 58.847129 39.344912 58.95341 40.032149 58.980469 40.724609 C 58.989236 40.485123 58.999952 40.245318 59 40.003906 L 59 40 C 59.000042 39.405155 58.919396 38.815988 58.839844 38.226562 z"/>
</svg>
